src/assets/logorule/fast-acceleration-svgrepo-com.svg

<!DOCTYPE svg PUBLIC "-//W3C//DTD SVG 1.1//EN" "http://www.w3.org/Graphics/SVG/1.1/DTD/svg11.dtd">
<!-- Uploaded to: SVG Repo, www.svgrepo.com, Transformed by: SVG Repo Mixer Tools -->
<svg width="800px" height="800px" viewBox="0 0 24 24" version="1.1" xmlns="http://www.w3.org/2000/svg" xmlns:xlink="http://www.w3.org/1999/xlink" fill="#ffffff">
<g id="SVGRepo_bgCarrier" stroke-width="0"/>
<g id="SVGRepo_tracerCarrier" stroke-linecap="round" stroke-linejoin="round"/>
<g id="SVGRepo_iconCarrier"> <!-- Uploaded to: SVG Repo, www.svgrepo.com, Transformed by: SVG Repo Mixer Tools --> <title>ic_fluent_fast_acceleration_24_regular</title> <desc>Created with Sketch.</desc> <g id="🔍-Product-Icons" stroke="none" stroke-width="1" fill="none" fill-rule="evenodd"> <g id="ic_fluent_fast_acceleration_24_regular" fill="#ffffff" fill-rule="nonzero"> <path d="M13.5,4 C18.1944204,4 22,7.80557963 22,12.5 C22,17.1944204 18.1944204,21 13.5,21 C11.7093093,21 10.0479491,20.44627 8.67780699,19.5006976 L1.75160796,19.5 C1.3373944,19.5 1.00160796,19.1642136 1.00160796,18.75 C1.00160796,18.3703042 1.28376184,18.056509 1.6498374,18.0068466 L1.75160796,18 L7.01990787,18.0010304 C6.62851175,17.5404282 6.28534977,17.037562 5.99822893,16.5002389 L3.74707239,16.5 C3.33285883,16.5 2.99707239,16.1642136 2.99707239,15.75 C2.99707239,15.3703042 3.27922627,15.056509 3.64530184,15.0068466 L3.74707239,15 L5.37393288,15.0010888 C5.13084253,14.210349 5,13.3704544 5,12.5 C5,10.402483 5.75974498,8.48241393 7.01905844,6.99996934 L2.75,7 C2.33578644,7 2,6.66421356 2,6.25 C2,5.87030423 2.28215388,5.55650904 2.64822944,5.50684662 L2.75,5.5 L8.67681753,5.49998537 C10.0471492,4.55399661 11.7088782,4 13.5,4 Z M13.5,5.5 C9.63400675,5.5 6.5,8.63400675 6.5,12.5 C6.5,16.3659932 9.63400675,19.5 13.5,19.5 C17.3659932,19.5 20.5,16.3659932 20.5,12.5 C20.5,8.63400675 17.3659932,5.5 13.5,5.5 Z M13.5031705,7.00168917 C16.5415547,7.00168917 19.0046518,9.46478626 19.0046518,12.5031705 C19.0046518,15.5415547 16.5415547,18.0046518 13.5031705,18.0046518 C10.4647863,18.0046518 8.00168917,15.5415547 8.00168917,12.5031705 C8.00168917,9.46478626 10.4647863,7.00168917 13.5031705,7.00168917 Z M14.6544509,14.7161265 C14.3091329,14.8963078 13.916463,14.998178 13.5,14.998178 C13.0879377,14.998178 12.6991682,14.8984493 12.3565116,14.721812 L11.2606292,15.8176918 C11.9003034,16.2513288 12.6721536,16.5046518 13.5031705,16.5046518 C14.3367966,16.5046518 15.1108838,16.2497355 15.7517331,15.813602 L14.6544509,14.7161265 Z M9.50168917,12.5031705 C9.50168917,13.3394057 9.75820368,14.1157288 10.1968395,14.7577465 L11.2897494,13.6664547 C11.1053413,13.3180255 11.000911,12.9207527 11.000911,12.499089 C11.000911,12.0822259 11.102977,11.6892017 11.283482,11.3436431 L10.192739,10.2546079 C9.75660546,10.8954572 9.50168917,11.6695444 9.50168917,12.5031705 Z M16.8176918,10.2606292 L15.722723,11.3556006 C15.8993603,11.6982572 15.999089,12.0870267 15.999089,12.499089 C15.999089,12.915952 15.897023,13.3089763 15.716518,13.6545349 L16.813602,14.7517331 C17.2497355,14.1108838 17.5046518,13.3367966 17.5046518,12.5031705 C17.5046518,11.6721536 17.2513288,10.9003034 16.8176918,10.2606292 Z M13.5,11.5 C12.9482184,11.5 12.500911,11.9473074 12.500911,12.499089 C12.500911,13.0508706 12.9482184,13.498178 13.5,13.498178 C14.0517816,13.498178 14.499089,13.0508706 14.499089,12.499089 C14.499089,11.9473074 14.0517816,11.5 13.5,11.5 Z M13.5031705,8.50168917 C12.6691096,8.50168917 11.8946496,8.75687149 11.2536051,9.19342168 L12.3435593,10.2830909 C12.6893583,10.1022619 13.0827369,10 13.5,10 C13.9212637,10 14.3181827,10.1042323 14.6663738,10.2883137 L15.7577465,9.19683948 C15.1157288,8.75820368 14.3394057,8.50168917 13.5031705,8.50168917 Z" id="🎨-Color"> </path> </g> </g> </g>
</svg>

<svg xmlns="http://www.w3.org/2000/svg" width="800" height="800" fill="#fff" viewBox="0 0 24 24"><path fill="#fff" fill-rule="nonzero" d="M13.5 4a8.5 8.5 0 1 1-4.822 15.5H1.752a.75.75 0 0 1-.102-1.493L1.752 18l5.268.001a8.5 8.5 0 0 1-1.022-1.5l-2.25-.001a.75.75 0 0 1-.103-1.493L3.747 15l1.627.001A8.5 8.5 0 0 1 5 12.5c0-2.098.76-4.018 2.02-5.5H2.75a.75.75 0 0 1-.102-1.493L2.75 5.5h5.927A8.46 8.46 0 0 1 13.5 4m0 1.5a7 7 0 1 0 0 14 7 7 0 0 0 0-14m.003 1.502a5.501 5.501 0 1 1 0 11.003 5.501 5.501 0 0 1 0-11.003m1.151 7.714c-.345.18-.738.282-1.154.282-.412 0-.8-.1-1.143-.276l-1.096 1.096c.64.433 1.411.687 2.242.687.834 0 1.608-.255 2.249-.691zm-5.152-2.213c0 .836.256 1.613.695 2.255l1.093-1.092A2.5 2.5 0 0 1 11 12.5c0-.417.103-.81.283-1.155l-1.09-1.09a4 4 0 0 0-.691 2.25m7.316-2.242-1.095 1.095c.176.342.276.731.276 1.143 0 .417-.102.81-.282 1.156l1.097 1.097c.436-.641.69-1.415.69-2.249 0-.83-.253-1.603-.686-2.242M13.5 11.5a1 1 0 1 0 0 1.998 1 1 0 0 0 0-1.998m.003-2.998c-.834 0-1.608.255-2.25.691l1.09 1.09c.346-.18.74-.283 1.157-.283.421 0 .818.104 1.166.288l1.092-1.091a4 4 0 0 0-2.255-.695"/></svg>
